src/circle-arrow-left.svg

<svg xmlns="http://www.w3.org/2000/svg" class="dibsvg-svg dibsvg-circle-arrow-left" viewBox="0 0 250 250">
    <path d="M0,125 C0,56.0810811 56.0810811,0 125,0 C193.918919,0 250,56.0810811 250,125 C250,193.918919 193.918919,250 125,250 C56.0810811,250 0,193.918919 0,125 L0,125 Z M9.99034749,125 C9.99034749,188.416988 61.5830116,240.009653 125,240.009653 C188.416988,240.009653 240.009653,188.416988 240.009653,125 C240.009653,61.5830116 188.416988,9.99034749 125,9.99034749 C61.5830116,9.99034749 9.99034749,61.5830116 9.99034749,125 L9.99034749,125 Z"/>
    <path d="M134.266409,179.440154 L144.88417,168.870656 L103.861004,127.702703 L145.849421,91.9401544 L136.148649,80.5501931 L81.8050193,126.833977 L134.266409,179.440154 Z"/>
</svg>

<svg xmlns="http://www.w3.org/2000/svg" class="dibsvg-svg dibsvg-circle-arrow-left" viewBox="0 0 250 250">
    <path d="M0 125C0 56.081 56.081 0 125 0s125 56.081 125 125-56.081 125-125 125S0 193.919 0 125zm9.99 0c0 63.417 51.593 115.01 115.01 115.01S240.01 188.417 240.01 125 188.417 9.99 125 9.99 9.99 61.583 9.99 125z"/>
    <path d="M134.266 179.44l10.618-10.57-41.023-41.167 41.988-35.763-9.7-11.39-54.344 46.284 52.461 52.606z"/>
</svg>
